X:1
T:Title
%%score { 1 | 2 }
L:1/8
M:4/4
K:Bb
V:1 treble nm="Grand Piano"
V:2 bass 
V:1
 z4 z2[Q:1/4=116] [DF]2 | [Fd]2 [Bd]2 [Ad]2 [Gd]2 | [Fd]4 [DB]2 [FB]2 | [GB]2 [Gc]2 [GB]2 [EG]2 | %4
 [DF]6 F2 | c2 c2 c2 d2 | B2 B2 B2 c2 | d2 d2 e2 d2 | c6 F2 | [Fd]2 [Bd]2 [Ad]2 [Gd]2 | %10
 [Fd]4 [DB]2 [FB]2 | [GB]2 [Gc]2 [GB]2 [EG]2 | [DF]6 [DF]2 | [FB]2 [FB]2 [FB]2 [Fc]2 | %14
 [Fd]2 [Fe]2 [Ff]2 [Ge]2 | d3 d c2 c2 |[M:3/4] [DB]6 |[M:1/4] [_AB]2 | %18
[M:4/4] [GB]2 [Ge]2 [Ge]2 [Ge]2 | [Ge]4 [GB]2 [Gc]2 | [Fd]2 [Bd]2 [Ad]2 [Gd]2 | [Fd]6 [Fd]2 | %22
 [Ff]2 [Fd]2 [Fe]2 [Fd]2 | [Gc]2 [GB]2 [FA]2 G2 | F2 d2 d2 c2 |[M:3/4] [DB]6 |] %26
V:2
 z4 z2 [B,,B,]2 | [B,,B,]2 [B,,B,]2 [B,,B,]2 [B,,B,]2 | [B,,B,]4 [B,,F,]2 [D,B,]2 | %3
 [E,E]2 [E,E]2 [E,E]2 [E,B,]2 | [B,,B,]6 [D,B,]2 | [F,A,F]2 [F,A,F]2 [F,A,E]2 [^F,A,D]2 | %6
 [G,B,D]2 [G,B,D]2 [G,B,D]2 [F,A,F]2 | [B,F]2 [B,F]2 [A,CF]2 [B,F]2 | [F,A,F]6 [F,A,]2 | %9
 [B,,B,]2 [B,,B,]2 [B,,B,]2 [B,,B,]2 | [B,,B,]4 [B,,F,]2 [D,B,]2 | [E,E]2 [E,E]2 [E,E]2 [E,B,]2 | %12
 [B,,B,]6 [B,,B,]2 | [D,B,]2 [D,B,]2 [D,B,]2 [F,A,]2 | [B,,B,]2 [C,A,]2 [D,B,]2 [E,B,]2 | %15
 [F,B,F]3 [F,B,F] [F,A,E]2 [F,A,E]2 |[M:3/4] [B,,B,]6 |[M:1/4] [B,D]2 | %18
[M:4/4] [E,E]2 [E,B,]2 [E,B,]2 [E,B,]2 | [E,B,]4 [E,B,]2 [E,B,]2 | %20
 [B,,B,]2 [B,,B,]2 [B,,B,]2 [B,,B,]2 | [B,,B,]6 [B,,B,]2 | [B,D]2 [B,,B,]2 [C,A,]2 [D,B,]2 | %23
 [E,E]2 [E,E]2 [E,E]2 [E,B,E]2 | [F,B,D]2 [F,B,F]2 [F,B,F]2 [F,A,E]2 |[M:3/4] [B,,B,]6 |] %26

